papirus/22x22/apps/kaddressbook.svg

<svg height="22" width="22" xmlns="http://www.w3.org/2000/svg" xmlns:xlink="http://www.w3.org/1999/xlink"><clipPath id="a"><circle cx="286" cy="26" r="10"/></clipPath><g transform="translate(-1 -1)"><circle cx="12" cy="12" fill="#955400" r="10"/><circle clip-path="url(#a)" cx="286" cy="26" opacity="0" r="10" stroke-width=".45455" transform="translate(-274 -14)"/><circle clip-path="url(#a)" cx="286" cy="26" opacity="0" r="10" stroke-width=".90908998" transform="translate(-274 -14)"/><path d="m12 2c-5.5395 0-9.999 4.46-9.999 10 0 .08386-.002.166645 0 .25.1321-5.423 4.5435-9.75 9.999-9.75 5.4555 0 9.867 4.3268 9.999 9.75.002-.08335 0-.16614 0-.25 0-5.54-4.4595-10-9.999-10z" fill="#fff" opacity=".2"/><path d="m21.9895 11.709a10 10 0 0 1 -9.9895 9.791 10 10 0 0 1 -9.989-9.709 10 10 0 0 0 -.011.209 10 10 0 0 0  10 10 10 10 0 0 0  10-10 10 10 0 0 0 -.0105-.291z" opacity=".3"/><g opacity=".2" transform="translate(0 .5)"><path d="m8.9999999 6.0000001c1.6568401 0 3.0000001 1.3432199 3.0000001 2.9999997 0 1.6567802-1.34316 3.0000002-3.0000001 3.0000002-1.6568399 0-2.9999999-1.34322-2.9999999-3.0000002 0-1.6567798 1.34316-2.9999997 2.9999999-2.9999997z"/><path d="m9.0000227 13.000032c5.0000223-.0025 5.0000223 3.200514 5.0000223 3.200514v.799454h-10.000045v-.799454c0 0 0-3.197864 5.0000227-3.200564z"/><path d="m16.5 4.9999817c1.38075 0 2.5 1.1193124 2.5 2.5000001 0 1.3806875-1.11925 2.5-2.5 2.5-1.380688 0-2.5-1.1193125-2.5-2.5 0-1.3806877 1.119312-2.5000001 2.5-2.5000001z"/><path d="m16.500016 10.999986c3.500016-.0015 3.500016 2.400511 3.500016 2.400511v.599503h-7.000032v-.599503c0 0 0-2.398411 3.500166-2.400411z"/></g><g fill="#fff"><path d="m8.9999999 6.0000001c1.6568401 0 3.0000001 1.3432199 3.0000001 2.9999997 0 1.6567802-1.34316 3.0000002-3.0000001 3.0000002-1.6568399 0-2.9999999-1.34322-2.9999999-3.0000002 0-1.6567798 1.34316-2.9999997 2.9999999-2.9999997z"/><path d="m9.0000227 13.000032c5.0000223-.0025 5.0000223 3.200514 5.0000223 3.200514v.799454h-10.000045v-.799454c0 0 0-3.197864 5.0000227-3.200564z"/><path d="m16.5 4.9999817c1.38075 0 2.5 1.1193124 2.5 2.5000001 0 1.3806875-1.11925 2.5-2.5 2.5-1.380688 0-2.5-1.1193125-2.5-2.5 0-1.3806877 1.119312-2.5000001 2.5-2.5000001z"/><path d="m16.500016 10.999986c3.500016-.0015 3.500016 2.400511 3.500016 2.400511v.599503h-7.000032v-.599503c0 0 0-2.398411 3.500166-2.400411z"/></g></g></svg>

<?xml version="1.0" encoding="UTF-8" standalone="no"?>
<!-- Created with Inkscape (http://www.inkscape.org/) -->

<svg
   xmlns:dc="http://purl.org/dc/elements/1.1/"
   xmlns:cc="http://creativecommons.org/ns#"
   xmlns:rdf="http://www.w3.org/1999/02/22-rdf-syntax-ns#"
   xmlns:svg="http://www.w3.org/2000/svg"
   xmlns="http://www.w3.org/2000/svg"
   xmlns:sodipodi="http://sodipodi.sourceforge.net/DTD/sodipodi-0.dtd"
   xmlns:inkscape="http://www.inkscape.org/namespaces/inkscape"
   id="svg2817"
   height="22"
   width="22"
   version="1.0"
   inkscape:version="0.91 r13725"
   sodipodi:docname="kaddressbook.svg">
  <sodipodi:namedview
     pagecolor="#ffffff"
     bordercolor="#666666"
     borderopacity="1"
     objecttolerance="10"
     gridtolerance="10"
     guidetolerance="10"
     inkscape:pageopacity="0"
     inkscape:pageshadow="2"
     inkscape:window-width="1600"
     inkscape:window-height="849"
     id="namedview31"
     showgrid="false"
     inkscape:zoom="4.3299648"
     inkscape:cx="-57.890007"
     inkscape:cy="8.5531776"
     inkscape:window-x="0"
     inkscape:window-y="0"
     inkscape:window-maximized="1"
     inkscape:current-layer="svg2817" />
  <metadata
     id="metadata57">
    <rdf:RDF>
      <cc:Work
         rdf:about="">
        <dc:format>image/svg+xml</dc:format>
        <dc:type
           rdf:resource="http://purl.org/dc/dcmitype/StillImage" />
        <dc:title></dc:title>
      </cc:Work>
    </rdf:RDF>
  </metadata>
  <defs
     id="defs2819">
    <clipPath
       id="clipPath4186"
       clipPathUnits="userSpaceOnUse">
      <circle
         id="path4188"
         style="color:#000000;fill:url(#linearGradient4190)"
         cx="286"
         cy="26"
         r="10" />
    </clipPath>
  </defs>
  <g
     id="g4149"
     transform="translate(-1,-1)">
    <circle
       r="10"
       cy="12"
       cx="12"
       style="color:#000000;fill:#955400;fill-opacity:1"
       id="path4230" />
    <circle
       r="10"
       cy="26"
       transform="translate(-274,-14)"
       cx="286"
       clip-path="url(#clipPath4186)"
       style="color:#000000;opacity:0;stroke-width:0.45455"
       id="path4240" />
    <circle
       r="10"
       cy="26"
       transform="translate(-274,-14)"
       cx="286"
       clip-path="url(#clipPath4186)"
       style="color:#000000;opacity:0;stroke-width:0.90908998"
       id="path4242" />
    <path
       d="M 12,2 C 6.4605,2 2.001,6.46 2.001,12 c 0,0.08386 -0.002,0.166645 0,0.25 C 2.1331,6.827 6.5445,2.5 12,2.5 c 5.4555,0 9.867,4.3268 9.999,9.75 0.002,-0.08335 0,-0.16614 0,-0.25 C 21.999,6.46 17.5395,2 12,2 Z"
       id="rect3436"
       inkscape:connector-curvature="0"
       style="opacity:0.2;fill:#ffffff" />
    <path
       d="M 21.9895,11.709 A 10,10 0 0 1 12,21.5 10,10 0 0 1 2.011,11.791 10,10 0 0 0 2,12 10,10 0 0 0 12,22 10,10 0 0 0 22,12 10,10 0 0 0 21.9895,11.709 Z"
       style="color:#000000;opacity:0.3"
       id="circle4276"
       inkscape:connector-curvature="0" />
    <g
       transform="translate(0,0.5)"
       id="g4219"
       style="opacity:0.2;fill:#000000;fill-opacity:1">
      <path
         d="M 8.9999999,6.0000001 C 10.65684,6.0000001 12,7.34322 12,8.9999998 12,10.65678 10.65684,12 8.9999999,12 7.34316,12 6,10.65678 6,8.9999998 6,7.34322 7.34316,6.0000001 8.9999999,6.0000001 Z"
         style="color:#000000;text-indent:0;text-decoration:none;text-decoration-line:none;text-transform:none;block-progression:tb;fill:#000000;fill-opacity:1"
         id="path4221"
         inkscape:connector-curvature="0" />
      <path
         d="m 9.0000227,13.000032 c 5.0000223,-0.0025 5.0000223,3.200514 5.0000223,3.200514 L 14.000045,17 4,17 4,16.200546 c 0,0 0,-3.197864 5.0000227,-3.200564 z"
         style="color:#000000;text-indent:0;text-decoration:none;text-decoration-line:none;text-transform:none;block-progression:tb;fill:#000000;fill-opacity:1"
         id="path4223"
         inkscape:connector-curvature="0" />
      <path
         d="m 16.5,4.9999817 c 1.38075,0 2.5,1.1193124 2.5,2.5000001 0,1.3806875 -1.11925,2.5 -2.5,2.5 -1.380688,0 -2.5,-1.1193125 -2.5,-2.5 0,-1.3806877 1.119312,-2.5000001 2.5,-2.5000001 z"
         style="color:#000000;text-indent:0;text-decoration:none;text-decoration-line:none;text-transform:none;block-progression:tb;fill:#000000;fill-opacity:1"
         id="path4225"
         inkscape:connector-curvature="0" />
      <path
         d="m 16.500016,10.999986 c 3.500016,-0.0015 3.500016,2.400511 3.500016,2.400511 L 20.000032,14 13,14 13,13.400497 c 0,0 0,-2.398411 3.500166,-2.400411 z"
         style="color:#000000;text-indent:0;text-decoration:none;text-decoration-line:none;text-transform:none;block-progression:tb;fill:#000000;fill-opacity:1"
         id="path4227"
         inkscape:connector-curvature="0" />
    </g>
    <g
       style="fill:#ffffff;fill-opacity:1"
       id="g4213">
      <path
         inkscape:connector-curvature="0"
         id="path4471"
         style="color:#000000;text-indent:0;text-decoration:none;text-decoration-line:none;text-transform:none;block-progression:tb;fill:#ffffff;fill-opacity:1"
         d="M 8.9999999,6.0000001 C 10.65684,6.0000001 12,7.34322 12,8.9999998 12,10.65678 10.65684,12 8.9999999,12 7.34316,12 6,10.65678 6,8.9999998 6,7.34322 7.34316,6.0000001 8.9999999,6.0000001 Z" />
      <path
         inkscape:connector-curvature="0"
         id="path6174-8"
         style="color:#000000;text-indent:0;text-decoration:none;text-decoration-line:none;text-transform:none;block-progression:tb;fill:#ffffff;fill-opacity:1"
         d="m 9.0000227,13.000032 c 5.0000223,-0.0025 5.0000223,3.200514 5.0000223,3.200514 L 14.000045,17 4,17 4,16.200546 c 0,0 0,-3.197864 5.0000227,-3.200564 z" />
      <path
         inkscape:connector-curvature="0"
         id="path4485"
         style="color:#000000;text-indent:0;text-decoration:none;text-decoration-line:none;text-transform:none;block-progression:tb;fill:#ffffff;fill-opacity:1"
         d="m 16.5,4.9999817 c 1.38075,0 2.5,1.1193124 2.5,2.5000001 0,1.3806875 -1.11925,2.5 -2.5,2.5 -1.380688,0 -2.5,-1.1193125 -2.5,-2.5 0,-1.3806877 1.119312,-2.5000001 2.5,-2.5000001 z" />
      <path
         inkscape:connector-curvature="0"
         id="path4487"
         style="color:#000000;text-indent:0;text-decoration:none;text-decoration-line:none;text-transform:none;block-progression:tb;fill:#ffffff;fill-opacity:1"
         d="m 16.500016,10.999986 c 3.500016,-0.0015 3.500016,2.400511 3.500016,2.400511 L 20.000032,14 13,14 13,13.400497 c 0,0 0,-2.398411 3.500166,-2.400411 z" />
    </g>
  </g>
</svg>
